X:154
%%pagewidth 8in
%%vocalfont Baskerville10Pro 13
T:Mall Peatly
M:6/8
L:1/8
K:C
%%score 1 2
V:1 clef-treble
V:2 clef-bass octave=-1
V:1
!>![CA]3 !>![CEc]3|[CE]2F GFE|[CA]2B [Fc]dc|[F(B]A)[E^G] [EA]3|
w:One ho-li-day, last summer, From four to seven,* by Croy-*don chimes,
V:2
[A,EA]3[A,EA]3|[CG]6|F3[FA]3|[Dd]2[EB] [Ac]3|
V:1
[CA]3[CEc]3|[CE]2F GFE|[CA]2B [F(c]d)c|[F(B]A)[E^G] [EG]2||
w:Three lass-es to-ping rummers Were set a pra-*ting of* the times.
V:2
[A,EA]3[A,EA]3|[CG]6|F3[FA]3|[Dd]2[EB][Ac]2||
V:1
[FA]/B/|[E(c]d)c GEC|c3-c2B/c/|[G(d]e)d [G(d]B)G|[Gd]3-[Gd]2 [E(c]/B/)|
w:A* wife* call'd Joan of the Mill,* And a maid* they call'd* brown Nell:* Take*
V:2
[FA]|[CG]3[CEG]3|[CEG]3-[CEG]2[CEG]|[B,DG]3[B,G]3|[B,G]3-[B,G]2[CG]|
V:1
[FA]2B [Ac]2d|[^Ge]2E G2E|ded [^GB]2A&E3x3|A6||
w:off your glass, said Gillian of Croy-don,~A health to our Mas-ter Will.
V:2
[FA]3[FA]3|[EB]3[E,E]2E|BcBx3&E3[Ed]3|[Ac]6||

